build/logo/HelmSolid.svg

<svg xmlns="http://www.w3.org/2000/svg" fill="none" viewBox="0 0 24 24" focusable="false"><path d="M0 0H24V24H0z"/><path fill="#74767B" fill-rule="evenodd" d="M11.3486 4.90723L11.3486 3.25085C11.3486 2.88684 11.6348 2.60083 11.999 2.60083C12.3623 2.60083 12.6484 2.88684 12.6484 3.25085L12.6484 4.90704C14.1279 5.04071 15.4766 5.62659 16.5557 6.52533L17.7266 5.35388C17.9844 5.0965 18.3887 5.0965 18.6465 5.35388C18.7744 5.48254 18.8389 5.64801 18.8389 5.81348C18.8389 5.97894 18.7744 6.14441 18.6465 6.27307L17.4746 7.44458C18.373 8.52313 18.959 9.87128 19.0928 11.3499L20.748 11.3499C21.1113 11.3499 21.3975 11.6359 21.3975 11.9999C21.3975 12.3638 21.1113 12.6498 20.748 12.6498L19.0928 12.6498C18.959 14.1286 18.373 15.4769 17.4746 16.5555L18.6455 17.7264C18.7734 17.855 18.8379 18.0205 18.8379 18.186C18.8379 18.3514 18.7734 18.5169 18.6455 18.6456C18.3877 18.903 17.9834 18.903 17.7256 18.6456L16.5547 17.4747C15.4766 18.3733 14.1279 18.959 12.6484 19.0927L12.6484 20.749C12.6484 21.113 12.3623 21.399 11.999 21.399C11.6348 21.399 11.3486 21.113 11.3486 20.749L11.3486 19.0925C9.87109 18.9586 8.52246 18.373 7.44434 17.4749L6.27344 18.6461C6.01562 18.9035 5.61133 18.9035 5.35449 18.6461C5.22559 18.5174 5.16113 18.3519 5.16113 18.1865C5.16113 18.021 5.22559 17.8555 5.35449 17.7269L6.52539 16.5558C5.62695 15.4771 5.04102 14.1287 4.90723 12.6498L3.25 12.6498C2.88574 12.6498 2.59961 12.3638 2.59961 11.9999C2.59961 11.6359 2.88574 11.3499 3.25 11.3499L4.90723 11.3499C5.04102 9.87128 5.62598 8.52307 6.52441 7.44452L5.35352 6.27295C5.22461 6.14429 5.16016 5.97882 5.16016 5.81335C5.16016 5.64789 5.22461 5.48242 5.35352 5.35376C5.61035 5.09637 6.01465 5.09637 6.27246 5.35376L7.44434 6.52527C8.52246 5.62695 9.87012 5.0412 11.3486 4.90723ZM13.6729 11.35L13.6729 8.77368C13.6729 8.40973 13.959 8.12372 14.3232 8.12372C14.6865 8.12372 14.9727 8.40973 14.9727 8.77368L14.9727 11.9716L14.9727 15.2263C14.9727 15.5903 14.6865 15.8763 14.3232 15.8763C13.959 15.8763 13.6729 15.5903 13.6729 15.2263L13.6729 12.65L10.3252 12.65L10.3252 15.2264C10.3252 15.5903 10.0391 15.8763 9.67578 15.8763C9.31152 15.8763 9.02539 15.5903 9.02539 15.2264L9.02539 8.77374C9.02539 8.40973 9.31152 8.12372 9.67578 8.12372C10.0391 8.12372 10.3252 8.40973 10.3252 8.77374L10.3252 11.35L13.6729 11.35Z"/></svg>

<svg xmlns="http://www.w3.org/2000/svg" fill="none" viewBox="0 0 24 24" focusable="false"><path fill="#74767B" fill-rule="evenodd" d="M11.34 4.9V3.25c0-.37.29-.65.65-.65.37 0 .65.28.65.65V4.9c1.48.14 2.83.72 3.91 1.62l1.17-1.17a.64.64 0 0 1 .92 0 .651.651 0 0 1 0 .92l-1.17 1.17a7.14 7.14 0 0 1 1.62 3.9h1.65c.37 0 .65.29.65.65 0 .37-.28.65-.65.65h-1.65a7.14 7.14 0 0 1-1.62 3.91l1.17 1.17a.65.65 0 0 1 0 .92.64.64 0 0 1-.92 0l-1.17-1.17a7.14 7.14 0 0 1-3.91 1.62v1.65c0 .37-.28.65-.65.65-.36 0-.65-.28-.65-.65v-1.65a7.14 7.14 0 0 1-3.9-1.62l-1.17 1.17a.64.64 0 0 1-.92 0 .651.651 0 0 1 0-.92l1.17-1.17a7.14 7.14 0 0 1-1.62-3.91H3.25a.65.65 0 1 1 0-1.3H4.9a7.14 7.14 0 0 1 1.62-3.9L5.35 6.27a.65.65 0 0 1 0-.92.64.64 0 0 1 .92 0l1.17 1.17a7.14 7.14 0 0 1 3.9-1.62m2.33 6.45V8.77c0-.37.28-.65.65-.65.36 0 .65.28.65.65v6.45c0 .37-.29.65-.65.65-.37 0-.65-.28-.65-.65v-2.57h-3.35v2.57c0 .37-.29.65-.65.65s-.65-.28-.65-.65V8.77c0-.37.29-.65.65-.65s.65.28.65.65v2.58z"/></svg>
